img/icon-insta.svg

<svg width="32" height="32" fill="none" xmlns="http://www.w3.org/2000/svg"><path d="M20.7999 16.0001c0 1.2731-.5057 2.494-1.4058 3.3942a4.80031 4.80031 0 01-6.7883 0c-.9001-.9002-1.4059-2.1211-1.4059-3.3942 0-.2736.0288-.5408.0784-.8H9.59995v6.3952c0 .4448.36.8048.80475.8048h11.192a.80507.80507 0 00.5681-.2362.80485.80485 0 00.2351-.5686v-6.3952h-1.6784c.0496.2592.0784.5264.0784.8zm-4.8 3.2c.4204-.0001.8366-.083 1.2249-.2439a3.20079 3.20079 0 001.7318-1.7327c.1608-.3884.2435-.8046.2433-1.225a3.20161 3.20161 0 00-.2439-1.2248 3.20079 3.20079 0 00-.6941-1.0382 3.19895 3.19895 0 00-1.0386-.6936 3.20023 3.20023 0 00-1.225-.2434 3.20067 3.20067 0 00-2.263.9381 3.20087 3.20087 0 00-.937 2.2635c.0003.8489.3377 1.663.9381 2.2631a3.20078 3.20078 0 002.2635.9369zm3.84-6.56h1.9184c.1275 0 .2498-.0505.34-.1405a.48113.48113 0 00.1416-.3395v-1.9184a.4816.4816 0 00-.141-.34051.4816.4816 0 00-.3406-.14105h-1.9184a.4817.4817 0 00-.4816.48156v1.9184c.0016.264.2176.48.4816.48zM15.9999.64014c-4.0737 0-7.98056 1.61828-10.86111 4.49884C2.25823 8.01954.63995 11.9264.63995 16.0001c0 4.0738 1.61828 7.9806 4.49884 10.8612 2.88055 2.8806 6.78741 4.4988 10.86111 4.4988 2.0172 0 4.0145-.3973 5.8781-1.1692a15.36023 15.36023 0 004.9831-3.3296 15.36023 15.36023 0 003.3296-4.9831 15.3603 15.3603 0 000-11.7561A15.3599 15.3599 0 0015.9999.64014zm8 21.58236c0 .9776-.8 1.7776-1.7776 1.7776H9.77755c-.9776 0-1.7776-.8-1.7776-1.7776V9.77774c0-.9776.8-1.7776 1.7776-1.7776H22.2223c.9776 0 1.7776.8 1.7776 1.7776V22.2225z" fill="#fff" fill-opacity=".6"/></svg>

<svg width="32" height="32" viewBox="0 0 32 32" fill="none" xmlns="http://www.w3.org/2000/svg">
<path d="M20.7999 16.0001C20.7999 17.2732 20.2942 18.4941 19.3941 19.3943C18.4939 20.2944 17.273 20.8001 15.9999 20.8001C14.7269 20.8001 13.506 20.2944 12.6058 19.3943C11.7057 18.4941 11.1999 17.2732 11.1999 16.0001C11.1999 15.7265 11.2287 15.4593 11.2783 15.2001H9.59995V21.5953C9.59995 22.0401 9.95995 22.4001 10.4047 22.4001H21.5967C21.8099 22.3997 22.0142 22.3147 22.1648 22.1639C22.3154 22.013 22.3999 21.8085 22.3999 21.5953V15.2001H20.7215C20.7711 15.4593 20.7999 15.7265 20.7999 16.0001ZM15.9999 19.2001C16.4203 19.2 16.8365 19.1171 17.2248 18.9562C17.6131 18.7952 17.9659 18.5594 18.263 18.2621C18.5602 17.9648 18.7958 17.6119 18.9566 17.2235C19.1174 16.8351 19.2001 16.4189 19.1999 15.9985C19.1998 15.5782 19.1169 15.162 18.956 14.7737C18.795 14.3854 18.5592 14.0326 18.2619 13.7355C17.9646 13.4383 17.6117 13.2026 17.2233 13.0419C16.8349 12.8811 16.4187 12.7984 15.9983 12.7985C15.1494 12.7987 14.3354 13.1362 13.7353 13.7366C13.1352 14.337 12.7981 15.1512 12.7983 16.0001C12.7986 16.849 13.136 17.6631 13.7364 18.2632C14.3368 18.8633 15.151 19.2003 15.9999 19.2001ZM19.8399 12.6401H21.7583C21.8858 12.6401 22.0081 12.5896 22.0983 12.4996C22.1886 12.4097 22.2395 12.2876 22.2399 12.1601V10.2417C22.2399 10.114 22.1892 9.99151 22.0989 9.90119C22.0086 9.81088 21.8861 9.76014 21.7583 9.76014H19.8399C19.7122 9.76014 19.5897 9.81088 19.4994 9.90119C19.4091 9.99151 19.3583 10.114 19.3583 10.2417V12.1601C19.3599 12.4241 19.5759 12.6401 19.8399 12.6401ZM15.9999 0.640137C11.9262 0.640137 8.01934 2.25842 5.13879 5.13898C2.25823 8.01954 0.639946 11.9264 0.639946 16.0001C0.639946 20.0739 2.25823 23.9807 5.13879 26.8613C8.01934 29.7419 11.9262 31.3601 15.9999 31.3601C18.0171 31.3601 20.0144 30.9628 21.878 30.1909C23.7415 29.419 25.4348 28.2876 26.8611 26.8613C28.2874 25.435 29.4188 23.7417 30.1907 21.8782C30.9626 20.0146 31.3599 18.0172 31.3599 16.0001C31.3599 13.983 30.9626 11.9857 30.1907 10.1221C29.4188 8.25856 28.2874 6.56528 26.8611 5.13898C25.4348 3.71267 23.7415 2.58126 21.878 1.80935C20.0144 1.03743 18.0171 0.640137 15.9999 0.640137ZM23.9999 22.2225C23.9999 23.2001 23.1999 24.0001 22.2223 24.0001H9.77755C8.79995 24.0001 7.99995 23.2001 7.99995 22.2225V9.77774C7.99995 8.80014 8.79995 8.00014 9.77755 8.00014H22.2223C23.1999 8.00014 23.9999 8.80014 23.9999 9.77774V22.2225Z" fill="white" fill-opacity="0.6"/>
</svg>
